X:1
T:Title
%%score { 1 | 2 }
L:1/8
M:4/4
K:Eb
V:1 treble nm="Grand Piano"
V:2 bass 
V:1
 z4 z2[Q:1/4=88] [EG][FA] | [GB][_G=A][=GB][_Ac] [GB]GFE | G2 G4 AB | c=Bcd eedc | [GB]6 [EG][EG] | %5
[M:3/4] [FA][=EG] [FA][GB] [FA][DF] |[M:1/4] [FA][GB] |[M:4/4] [Ad]2 [Ad]4 [FA][FA] | %8
 G_G=GB =A_A=Ac |[M:3/4] [DB]6 |[M:1/4] BB |[M:4/4] [Ge]2 .[Ge]2 [Ge][Gd][Gc][GB] | %12
 [Ad]>[Ad] [Ad]4 [FA][FA] | [FAd]2 [FAd]4 [DAc][B,FA] | [B,EG]>[EGB] [EGB]4 [DAB][AB] | %15
 [Ge]2 .[Ge]2 [Ge][Gd][EGc][EB] | [EBd]>[EAc] [EAc]4 [EAc][EAc] | [EGB]3 [Gc] [EG]2 [DF]2 | %18
[M:3/4] E6 |] %19
V:2
 z4 z2 [E,B,][E,B,] | [E,E][E,E][E,E][E,E] [E,E][E,B,E][E,A,B,][E,G,B,] | %2
 [E,B,E]2 [E,B,E]4 [F,B,D][K:treble][G,E] | [A,EA][A,DA][A,EA][A,DA] [A,CA][A,CA][A,CA][A,EA] | %4
 [E,E]6 [E,B,][E,B,] |[M:3/4] [B,,B,][B,,B,] [B,,B,][B,,B,] [B,,B,][B,,B,] | %6
[M:1/4] [B,,B,][B,,B,] |[M:4/4] [B,,B,]2 [B,,B,]4 [B,,B,][B,,B,] | %8
 [E,B,E][E,=A,E][E,B,E][E,G,E] [F,CE][F,=B,E][F,CE][F,A,E] |[M:3/4] [B,,B,]6 | %10
[M:1/4][K:treble] [B,A][B,A] |[M:4/4][K:bass] [E,B,]2 .[E,B,]2 [E,B,][E,B,][E,B,][E,B,] | %12
 [F,B,]>[F,B,] [F,B,]4 B,B, | B,,2 B,,4 B,,B,, | E,>E, E,4 B,B, | %15
 [E,B,]2 .[E,B,]2 [E,B,][E,B,]E,G, | A,>A, A,4 A,,A,, | B,,3 [B,,B,] [B,,B,]2 [B,,A,]2 | %18
[M:3/4] [E,G,]6 |] %19

